icon/ir/soap.svg

<svg stroke-width="1.5" viewBox="0 0 24 24" fill="none" xmlns="http://www.w3.org/2000/svg" height="1em" width="1em">
  <path d="M7 11C7 8.79086 8.79086 7 11 7H13C15.2091 7 17 8.79086 17 11V20.4C17 20.7314 16.7314 21 16.4 21H7.6C7.26863 21 7 20.7314 7 20.4V11Z" stroke="currentColor" stroke-linecap="round"/>
  <path d="M7 13H17" stroke="currentColor" stroke-linecap="round"/>
  <path d="M12 7V3M12 3H9M12 3H13" stroke="currentColor" stroke-linecap="round"/>
</svg>

<svg width="24" height="24" stroke-width="1.5" fill="none" xmlns="http://www.w3.org/2000/svg"><path d="M7 11a4 4 0 0 1 4-4h2a4 4 0 0 1 4 4v9.4a.6.6 0 0 1-.6.6H7.6a.6.6 0 0 1-.6-.6V11ZM7 13h10M12 7V3m0 0H9m3 0h1" stroke="currentColor" stroke-linecap="round"/></svg>
